X: 1
T: Dark Skies, Bright Stars
C: David A. Kaynor May 2015
B: David A. Kaynor "Living Music and Dance" 2021
Z: 2022 John Chambers <jc:trillian.mit.edu>
M: 4/4
L: 1/8
K: G
# = = = = = = = = = =
V:1 staves=2
DF |\
"G"G3A G2B,D | "Am"CEAG "D"FDD2 | "G"G3A   "Em"G2B,D | "Am"CEAB "D"A2DF ||\
"G"G3A G2B,D | "Am"CEAG "D"FDD2 | "G"BGDB, "Am"C2B,C | "D"DGGF  "G"G2 :|
|: Bd |\
"G"gage dgBd | "Am"cEAG "D"F[AD][A2D2] | "G"BABd  "Em"g2ag  | "Am"faeA "D"d2ef ||\
"G"gage dgBd | "Am"cEAG "D"FAdc        | "G"BGDB, "Am"C2B,C  | "D"DGGF "G"G2 :|
# = = = = = = = = = =
V:2
B,D |\
"G"D3D D2G,B, | "Am"A,CEE "D"DA,A,2 | "G"D3D "Em"E2G,B, | "Am"A,CEE "D"[F2A,2]A,D |\
"G"D3D D2G,B, | "Am"A,CEE "D"DA,A,2 | "G"GDB,G, "Am"A,2G,A, | "D"A,DDC "G"[D2B,2] :|
|: GB |\
"G"d2dc BdGB | "Am"ACEE "D"DFF2 | "G"GDGB "Em"e2e2 | "Am"ceAE "D"F2 cd |\
"G"d2dc BdGB | "Am"ACEE "D"DFF2 | "G"GDB,G, "Am"A,2A,A, | "D"A,DDC "G"[D2B,2] :|
# = = = = = = = = = =
